icons/desktop/16/svg/search-in-circle-right-16.svg

<svg width="16" height="16" viewBox="0 0 16 16" fill="none" xmlns="http://www.w3.org/2000/svg">
<path d="M8.62598 4.87402C9.19272 4.87402 9.72599 5.09642 10.1279 5.49707C10.5297 5.89785 10.7507 6.43237 10.751 6.99902C10.751 7.56594 10.5288 8.10097 10.1279 8.50195C9.32497 9.30459 7.926 9.3046 7.12305 8.50195C6.72125 8.10099 6.5 7.56588 6.5 6.99902C6.50025 6.43237 6.72227 5.89785 7.12305 5.49707C7.52397 5.09536 8.05922 4.87406 8.62598 4.87402Z" fill="black"/>
<path fill-rule="evenodd" clip-rule="evenodd" d="M8 0C12.4183 0 16 3.58172 16 8C16 12.4183 12.4183 16 8 16C3.58172 16 0 12.4183 0 8C0 3.58172 3.58172 0 8 0ZM11.0107 4.61328C9.73679 3.33895 7.51314 3.33886 6.23926 4.61328C5.60148 5.25006 5.25024 6.09837 5.25 6.99902C5.25 7.77879 5.51374 8.51923 5.99805 9.11719L4.18262 10.9326C3.93906 11.1765 3.93925 11.5724 4.18262 11.8164C4.30458 11.9384 4.46505 11.999 4.625 11.999C4.785 11.999 4.94538 11.9384 5.06738 11.8164L6.95215 9.93066C7.45619 10.2196 8.02873 10.374 8.625 10.374C9.52588 10.374 10.3738 10.0236 11.0107 9.38574C11.6486 8.74876 12 7.89994 12 6.99902C11.9998 6.09837 11.6485 5.25006 11.0107 4.61328Z" fill="black"/>
</svg>

<!-- This Source Code Form is subject to the terms of the Mozilla Public
   - License, v. 2.0. If a copy of the MPL was not distributed with this
   - file, You can obtain one at http://mozilla.org/MPL/2.0/. -->
<svg xmlns="http://www.w3.org/2000/svg" width="16" height="16" fill="context-fill" fill-opacity="context-fill-opacity" viewBox="0 0 16 16">
    <path d="M8.626 4.874c.567 0 1.1.222 1.502.623.402.4.623.935.623 1.502s-.222 1.102-.623 1.503c-.803.803-2.202.803-3.005 0A2.1 2.1 0 0 1 6.5 6.999c0-.567.222-1.101.623-1.502.401-.402.936-.623 1.503-.623" />
    <path fill-rule="evenodd" d="M8 0a8 8 0 1 1 0 16A8 8 0 0 1 8 0m3.01 4.613c-1.273-1.274-3.497-1.274-4.77 0A3.35 3.35 0 0 0 5.25 7c0 .78.264 1.52.748 2.118l-1.815 1.816a.626.626 0 0 0 .884.883l1.885-1.885a3.35 3.35 0 0 0 1.673.443c.9 0 1.749-.35 2.386-.988.638-.637.989-1.486.989-2.387 0-.9-.351-1.749-.99-2.386" clip-rule="evenodd" />
</svg>
